X:1
T:Title
%%score 1 { 2 | 3 }
L:1/8
Q:1/4=120
M:6/4
K:Ab
V:1 treble nm="Grand Piano, Soprano"
V:2 bass nm="Choir Pad, Maracaibo, Emily D. Wilson"
V:3 bass 
V:1
 E2 [Ec]3 [=D_c] [E=c]2 [Fd]3 [Ec] | [DB]2 [EA]2 [EG]2 [DF]2 [CE]4 | %2
w: By~Emily~Divine~Wilson,~1907 * * * * *||
 [CE]2 [CA]3 [CA] [CA]2 [=DA]2 [DG]2 | [=DA]2 [EB]4- [EB]4- [EB]3/2 z/ | %4
w: ||
 E2 [Ec]3 [Ec] [Ec]2 [=EB]4 | [=EG][EG] [GB]3 [FA] [FA]2 [FA]4 | %6
w: ||
 [_CF]2 [=CE]3 [EA] [EA]2 [EG]2 [EA]2 | [GB]2 [EA]4- [EA]4- [EA]3/2 z/ | %8
w: ||
 [EA]2 [GB]3 [GB] [GB]2 [GB]2 [EA]2 | [GB]2 [Ac]2 [EA]2 [DF]2 [CE]4 | %10
w: ||
 [Ec]2 [Ec]3 [EB] [EB]2 [=DB]2 [Ac]2 | [A=d]2 [Ge]4- [Ge]4- [Ge]3/2 z/ | %12
w: ||
 [Gd]2 [Ec]3 [Ec] [Ec]2 [=Ec]4 | [=EB][EG] [GB]3 [FA] [FA]2 [FA]4 | %14
w: ||
 [_CF]2 [=CE]3 [EA] [EA]2 [EG]2 [EA]2 | [EB]2 [EA]4- [EA]4- [EA]3/2 z/ |] %16
w: ||
V:2
 E,2 A,3 A, A,2 A,3 A, | G,2 A,2 A,2 A,2 A,4 | A,2 E,3 E, A,2 B,2 B,2 | A,2 G,4- G,4- G,3/2 z/ | %4
 G,2 A,3 A, A,2 G,4 | CC C3 C C2 D4 | A,2 A,3 C C2 B,2[K:treble] C2 | D2 C4- C4- C3/2 z/ | %8
 C2 D3 D D2 D2 C2 | C2 E2 C2[K:bass] A,2 A,4 | A,2 G,3 G, G,2 F,2 B,2 | B,2 B,4- B,4- B,3/2 z/ | %12
 B,2 A,3 A, A,2 G,4 | G,[K:treble]C C3 C C2 D4 | A,2 A,3 C C2 B,2[K:treble] C2 | %15
 D2 C4- C4- C3/2 z/ |] %16
V:3
 z2 A,,3 A,, A,,2 A,,3 A,, | B,,2 C,2 C,2 D,2 A,,4 | A,,2 A,,3 A,, A,,2 F,2 F,2 | %3
 F,2 E,4- E,4- E,3/2 z/ | E,2 A,,3 A,, A,,2 C,4 | C,C, F,3 F, F,2 D,4 | =D,2 E,3 E, E,2 E,2 E,2 | %7
 E,2 A,4- A,4- A,3/2 z/ | A,2 E,3 E, E,2 E,2 E,2 | E,2 A,2 A,2 z2 A,,4 | %10
 A,,2 B,,3 B,, B,,2 B,,2 B,,2 | B,,2 E,4- E,4- E,3/2 z/ | E,2 A,,3 A,, A,,2 C,4 | %13
 C,C, F,3 F, F,2 D,4 | =D,2 E,3 E, E,2 E,2 E,2 | E,2 [A,,A,]4- [A,,A,]4- [A,,A,]3/2 z/ |] %16

